src/static/logos/udemy.svg

<?xml version="1.0" encoding="UTF-8" standalone="no"?>
<svg width="256px" height="256px" viewBox="0 0 256 256" version="1.1" xmlns="http://www.w3.org/2000/svg" xmlns:xlink="http://www.w3.org/1999/xlink" preserveAspectRatio="xMidYMid">
	<g>
		<path d="M78.1568,0 L226.75712,0 C242.90816,0 256,13.09184 256,29.24288 L256,175.55712 C256,219.98336 219.98336,256 175.55712,256 L80.10496,256 C35.8656,256 0,220.1344 0,175.89504 L0,78.1568 C0,34.99008 34.99008,0 78.1568,0" fill="#4FB74C"></path>
		<path d="M204.8,48.64 L204.8,147.86048 C204.8,180.72064 178.16064,207.36 145.30048,207.36 L112.56064,207.36 C78.67136,207.36 51.2,179.88864 51.2,146.00192 L51.2,75.38432 C51.2,60.61312 63.17312,48.64 77.94432,48.64 L87.04,48.64 L87.04,145.10592 C87.04,161.10848 100.01152,174.08 116.01408,174.08 L140.28032,174.08 C156.11904,174.08 168.96,161.23904 168.96,145.40032 L168.96,74.94656 C168.96,60.41856 180.73856,48.64 195.26656,48.64 L204.8,48.64" fill="#FFFFFF"></path>
	</g>
</svg>

<svg width="256" height="256" xmlns="http://www.w3.org/2000/svg" preserveAspectRatio="xMidYMid"><path d="M78.157 0h148.6C242.908 0 256 13.092 256 29.243v146.314C256 219.983 219.983 256 175.557 256H80.105C35.865 256 0 220.134 0 175.895V78.157C0 34.99 34.99 0 78.157 0" fill="#4FB74C"/><path d="M204.8 48.64v99.22c0 32.86-26.64 59.5-59.5 59.5h-32.74c-33.889 0-61.36-27.471-61.36-61.358V75.384c0-14.77 11.973-26.744 26.744-26.744h9.096v96.466c0 16.002 12.972 28.974 28.974 28.974h24.266c15.839 0 28.68-12.841 28.68-28.68V74.947c0-14.528 11.779-26.307 26.307-26.307h9.533" fill="#FFF"/></svg>
